moscow-sport/img/sprite/cat1.svg

<svg width="994" height="741" fill="none" xmlns="http://www.w3.org/2000/svg"><g clip-path="url(#clip0)" fill="#EB3333"><path d="M389.46 645.556c82.585-82.515 136.023-189.299 136.023-310.644V0h77.727v334.912c0 58.246 9.716 131.053 29.148 184.445 19.432-53.392 29.148-121.345 29.148-184.445V0h77.727v334.912c0 121.345 53.437 232.983 136.023 310.644C923.835 694.094 986.989 728.07 1055 752.339V830c-92.301-24.269-170.028-72.807-238.04-131.053-48.579-48.538-87.443-101.929-116.591-160.175-19.431 53.392-43.721 101.93-72.869 140.76-29.148-38.83-53.438-87.368-72.869-140.76-29.148 63.099-68.012 116.491-116.591 160.175C374.886 762.047 292.301 805.731 200 830v-77.661c77.727-19.415 140.881-58.245 189.46-106.783z" fill-opacity=".13"/><path d="M897.142 356.566c-6.53-3.655-13.06-6.787-15.933-14.357-1.567-4.177-1.306-9.397-2.873-13.574-3.134-8.614-9.664-15.923-16.977-21.143-18.806-13.052-42.314-12.53-63.992-8.875 2.873-6.787 5.485-13.574 7.835-20.622 1.829-5.481 3.396-10.963 4.702-16.706 2.089-8.614 3.395-16.967 3.918-25.842.783-12.79 5.485-20.099 10.447-31.323 10.187-23.493 1.306-51.684-19.067-66.563-21.94-16.184-51.977-16.184-75.484-3.132-22.463 12.268-45.448 40.198-37.612 67.084-3.657-1.044-7.836 1.045-9.925 4.699-3.918 7.048 2.089 14.618.522 21.927-1.306 6.003-4.179 11.746.784 16.967 2.089 2.349 4.962 3.393 8.097 3.393-3.918 28.713-5.747 59.776-2.09 88.75-8.88 1.305-15.41 6.787-24.813 8.092-15.411 2.35-31.866-1.566-47.015 1.305-4.701.783-10.97 1.045-11.492 7.309 0 1.044 0 1.827.261 2.611-10.97-1.045-36.828-.784-28.47 12.529 3.657 5.743 13.321 7.57 19.589 8.614 7.575 1.044 15.411.522 22.985-1.044-1.044 3.654-1.828 7.57-2.873 11.224-.522 2.088-1.306 4.438-2.089 6.787-7.314.783-15.411 4.699-20.112 8.353-2.873 2.349-4.44 5.743-2.351 9.397.522 1.044 1.567 1.827 2.351 2.349a48.824 48.824 0 0 1-5.224 2.611c-23.769-7.048-47.276-14.879-70.522-23.754-13.582-5.221-27.164-10.963-40.485-16.706-12.276-5.482-27.164-10.18-37.35-19.316-13.06-11.747-14.105-31.585-30.299-40.46-9.925-5.221-21.94-5.743-31.343-.522-8.097-7.57-18.805-8.092-29.253-6.004-5.746 1.044-15.411 5.482-14.105 11.486-45.969 9.919-61.119 70.478-33.955 105.717 30.56 39.938 91.418 33.673 115.447-9.136 1.306 2.349 3.657 4.176 6.269 4.959 2.873 1.044 7.313.522 9.925-1.305 24.03 31.324 59.552 55.6 94.03 74.133 23.507 12.529 55.372 27.147 80.708 15.662-1.828 6.786-2.351 13.834-3.134 21.143-1.567 16.184-3.396 32.368-7.314 48.291-3.395 14.356-9.141 26.103-15.671 39.415-3.918 7.57-5.746 14.879-4.441 22.971-.522 0-.783 0-1.305.261-3.918.783-7.575 3.132-9.665 6.004-1.306 1.827-2.35 3.654-2.873 6.004-14.626 4.959-26.38 19.838-36.567 30.279-8.097 8.092-15.932 17.489-16.977 28.713-37.873 3.655-67.388 17.75-94.552 44.898-15.41 15.4-30.559 30.54-49.104 42.287-17.5 11.224-36.044 20.099-54.067 30.279-34.477 19.577-61.902 45.68-87.76 75.438-26.12 30.018-50.41 61.603-81.492 86.662l-.261.261c-14.366-3.915-30.56 4.438-36.045 19.314-4.701-1.56-9.664-2.61-14.888-2.87-4.963-.26-14.104-.52-15.671 5.48-.784 3.4.783 6.01 3.395 8.09-33.955 3.66-94.03 16.97-78.358 52.73 8.358 18.8 31.343 32.63 50.15 38.37 19.066 6.01 33.17-.78 45.708-13.57 12.015 9.92 27.164 19.32 43.097 13.05 16.977-6.52 21.679-30.28 29.776-44.63 23.507-41.77 59.813-75.964 102.909-97.107 39.44-19.317 90.895-20.361 104.477-69.434 4.44-15.923 11.493-25.582 27.948-29.497 10.97-2.871 22.201-2.088 33.432-2.088 9.664 0 19.329-.522 28.47-2.872 14.366 11.225 38.134 11.747 57.985 8.615h.261c13.321 5.742 18.545 11.485 33.433 7.308 18.022-5.22 35-8.353 53.544-6.787 0 .784.261 1.306.523 2.089 5.746 30.801 13.582 60.298 16.194 91.883.783 9.136 1.828 19.055 9.402 25.319 8.097 6.791 13.844 2.871 21.941 2.091-1.829 10.18-.262 20.62 0 30.8.522 13.05.522 26.1-.262 38.89-.783 15.4-3.395 30.02 9.926 38.37 1.828 16.45 6.791 36.29 19.328 46.99 12.537 10.7 32.649 14.1 48.843 13.31 16.455-.78 22.985-12.53 27.948-27.14 3.395-10.71 3.134-21.93 6.529-32.37 3.657-11.49 11.493-20.89 15.411-32.63 12.798-38.37 12.537-78.572 14.627-118.509.522-9.136 1.044-18.272 1.828-27.408 5.224-53.512 20.112-108.328 36.567-159.49 8.619 0 17.238-1.305 24.291-6.265 10.709-7.309 13.32-20.36 15.41-32.368 2.351-12.79 3.918-26.364 0-38.893-1.567-4.96-4.963-8.614-6.791-13.052-3.657-8.353 2.09-13.573 4.701-21.665 3.918-12.269 3.918-26.103-.522-38.372-2.612-7.309-7.052-13.051-10.97-19.577-6.269-11.485-4.963-22.449-3.396-34.978 5.486-41.243 12.015-82.486 17.762-123.989 18.283-3.655 38.134-11.747 39.962-32.89 0-16.706-10.186-43.592-25.858-52.728z"/></g><defs><clipPath id="clip0"><path fill="#fff" d="M0 0h994v741H0z"/></clipPath></defs></svg>

<svg width="994" height="741" viewBox="0 0 994 741" fill="none" xmlns="http://www.w3.org/2000/svg">
<g clip-path="url(#clip0)">
<path d="M389.46 645.556C472.045 563.041 525.483 456.257 525.483 334.912V0H603.21V334.912C603.21 393.158 612.926 465.965 632.358 519.357C651.79 465.965 661.506 398.012 661.506 334.912V0H739.233V334.912C739.233 456.257 792.67 567.895 875.256 645.556C923.835 694.094 986.989 728.07 1055 752.339V830C962.699 805.731 884.972 757.193 816.96 698.947C768.381 650.409 729.517 597.018 700.369 538.772C680.938 592.164 656.648 640.702 627.5 679.532C598.352 640.702 574.062 592.164 554.631 538.772C525.483 601.871 486.619 655.263 438.04 698.947C374.886 762.047 292.301 805.731 200 830V752.339C277.727 732.924 340.881 694.094 389.46 645.556Z" fill="#EB3333" fill-opacity="0.13"/>
<path d="M897.142 356.566C890.612 352.911 884.082 349.779 881.209 342.209C879.642 338.032 879.903 332.812 878.336 328.635C875.202 320.021 868.672 312.712 861.359 307.492C842.553 294.44 819.045 294.962 797.367 298.617C800.24 291.83 802.852 285.043 805.202 277.995C807.031 272.514 808.598 267.032 809.904 261.289C811.993 252.675 813.299 244.322 813.822 235.447C814.605 222.657 819.307 215.348 824.269 204.124C834.456 180.631 825.575 152.44 805.202 137.561C783.262 121.377 753.225 121.377 729.718 134.429C707.255 146.697 684.27 174.627 692.106 201.513C688.449 200.469 684.27 202.558 682.181 206.212C678.263 213.26 684.27 220.83 682.703 228.139C681.397 234.142 678.524 239.885 683.487 245.106C685.576 247.455 688.449 248.499 691.584 248.499C687.666 277.212 685.837 308.275 689.494 337.249C680.614 338.554 674.084 344.036 664.681 345.341C649.27 347.691 632.815 343.775 617.666 346.646C612.965 347.429 606.696 347.691 606.174 353.955C606.174 354.999 606.174 355.782 606.435 356.566C595.465 355.521 569.607 355.782 577.965 369.095C581.622 374.838 591.286 376.665 597.554 377.709C605.129 378.753 612.965 378.231 620.539 376.665C619.495 380.319 618.711 384.235 617.666 387.889C617.144 389.977 616.36 392.327 615.577 394.676C608.263 395.459 600.166 399.375 595.465 403.029C592.592 405.378 591.025 408.772 593.114 412.426C593.636 413.47 594.681 414.253 595.465 414.775C593.636 415.819 592.069 416.603 590.241 417.386C566.472 410.338 542.965 402.507 519.719 393.632C506.137 388.411 492.555 382.669 479.234 376.926C466.958 371.444 452.07 366.746 441.884 357.61C428.824 345.863 427.779 326.025 411.585 317.15C401.66 311.929 389.645 311.407 380.242 316.628C372.145 309.058 361.437 308.536 350.989 310.624C345.243 311.668 335.578 316.106 336.884 322.11C290.915 332.029 275.765 392.588 302.929 427.827C333.489 467.765 394.347 461.5 418.376 418.691C419.682 421.04 422.033 422.867 424.645 423.65C427.518 424.694 431.958 424.172 434.57 422.345C458.6 453.669 494.122 477.945 528.6 496.478C552.107 509.007 583.972 523.625 609.308 512.14C607.48 518.926 606.957 525.974 606.174 533.283C604.607 549.467 602.778 565.651 598.86 581.574C595.465 595.93 589.719 607.677 583.189 620.989C579.271 628.559 577.443 635.868 578.748 643.96C578.226 643.96 577.965 643.96 577.443 644.221C573.525 645.004 569.868 647.353 567.778 650.225C566.472 652.052 565.428 653.879 564.905 656.229C550.279 661.188 538.525 676.067 528.338 686.508C520.241 694.6 512.406 703.997 511.361 715.221C473.488 718.876 443.973 732.971 416.809 760.119C401.399 775.519 386.25 790.659 367.705 802.406C350.205 813.63 331.661 822.505 313.638 832.685C279.161 852.262 251.736 878.365 225.878 908.123C199.758 938.141 175.468 969.726 144.386 994.785C144.386 994.785 144.386 994.785 144.125 995.046C129.759 991.131 113.565 999.484 108.08 1014.36C103.379 1012.8 98.4159 1011.75 93.192 1011.49C88.2294 1011.23 79.0876 1010.97 77.5205 1016.97C76.7369 1020.37 78.3041 1022.98 80.916 1025.06C46.961 1028.72 -13.1132 1042.03 2.55829 1077.79C10.9164 1096.59 33.9014 1110.42 52.7072 1116.16C71.7742 1122.17 85.8786 1115.38 98.4159 1102.59C110.431 1112.51 125.58 1121.91 141.513 1115.64C158.49 1109.12 163.192 1085.36 171.289 1071.01C194.796 1029.24 231.102 995.046 274.198 973.903C313.638 954.586 365.093 953.542 378.675 904.469C383.115 888.546 390.168 878.887 406.623 874.972C417.593 872.101 428.824 872.884 440.055 872.884C449.719 872.884 459.384 872.362 468.525 870.012C482.891 881.237 506.659 881.759 526.51 878.627C526.51 878.627 526.51 878.627 526.771 878.627C540.092 884.369 545.316 890.112 560.204 885.935C578.226 880.715 595.204 877.582 613.748 879.148C613.748 879.932 614.009 880.454 614.271 881.237C620.017 912.038 627.853 941.535 630.465 973.12C631.248 982.256 632.293 992.175 639.867 998.439C647.964 1005.23 653.711 1001.31 661.808 1000.53C659.979 1010.71 661.546 1021.15 661.808 1031.33C662.33 1044.38 662.33 1057.43 661.546 1070.22C660.763 1085.62 658.151 1100.24 671.472 1108.59C673.3 1125.04 678.263 1144.88 690.8 1155.58C703.337 1166.28 723.449 1169.68 739.643 1168.89C756.098 1168.11 762.628 1156.36 767.591 1141.75C770.986 1131.04 770.725 1119.82 774.12 1109.38C777.777 1097.89 785.613 1088.49 789.531 1076.75C802.329 1038.38 802.068 998.178 804.158 958.241C804.68 949.105 805.202 939.969 805.986 930.833C811.21 877.321 826.098 822.505 842.553 771.343C851.172 771.343 859.791 770.038 866.844 765.078C877.553 757.769 880.164 744.718 882.254 732.71C884.605 719.92 886.172 706.346 882.254 693.817C880.687 688.857 877.291 685.203 875.463 680.765C871.806 672.412 877.553 667.192 880.164 659.1C884.082 646.831 884.082 632.997 879.642 620.728C877.03 613.419 872.59 607.677 868.672 601.151C862.403 589.666 863.709 578.702 865.276 566.173C870.762 524.93 877.291 483.687 883.038 442.184C901.321 438.529 921.172 430.437 923 409.294C923 392.588 912.814 365.702 897.142 356.566Z" fill="#EB3333"/>
</g>
<defs>
<clipPath id="clip0">
<rect width="994" height="741" fill="white"/>
</clipPath>
</defs>
</svg>
